animalshelter/animalshelter-web-ui/src/main/resources/images_shelter/Medical.svg

<svg xmlns="http://www.w3.org/2000/svg" xmlns:xlink="http://www.w3.org/1999/xlink" width="1080" zoomAndPan="magnify" viewBox="0 0 810 809.999993" height="1080" preserveAspectRatio="xMidYMid meet" version="1.0"><defs><clipPath id="8b22a5e5cb"><path d="M 335 581 L 475 581 L 475 612.332031 L 335 612.332031 Z M 335 581 " clip-rule="nonzero"/></clipPath><clipPath id="d26268c924"><path d="M 182 550 L 336 550 L 336 612.332031 L 182 612.332031 Z M 182 550 " clip-rule="nonzero"/></clipPath><clipPath id="12989df0ad"><path d="M 474 550 L 628 550 L 628 612.332031 L 474 612.332031 Z M 474 550 " clip-rule="nonzero"/></clipPath><clipPath id="26154deafe"><path d="M 182 197.582031 L 336 197.582031 L 336 313 L 182 313 Z M 182 197.582031 " clip-rule="nonzero"/></clipPath></defs><rect x="-81" width="972" fill="#ffffff" y="-80.999999" height="971.999992" fill-opacity="1"/><rect x="-81" width="972" fill="#a6a6a6" y="-80.999999" height="971.999992" fill-opacity="1"/><path fill="#512623" d="M 474.265625 581.609375 L 335.925781 581.609375 L 335.925781 550.886719 L 474.265625 550.886719 L 474.265625 581.609375 " fill-opacity="1" fill-rule="nonzero"/><g clip-path="url(#8b22a5e5cb)"><path fill="#66342e" d="M 474.265625 612.332031 L 335.925781 612.332031 L 335.925781 581.609375 L 474.265625 581.609375 L 474.265625 612.332031 " fill-opacity="1" fill-rule="nonzero"/></g><g clip-path="url(#d26268c924)"><path fill="#d3843d" d="M 335.925781 612.332031 L 182.214844 612.332031 L 182.214844 550.886719 L 335.925781 550.886719 L 335.925781 612.332031 " fill-opacity="1" fill-rule="nonzero"/></g><path fill="#f9bb4b" d="M 220.644531 589.292969 L 205.273438 589.292969 L 205.273438 573.929688 L 220.644531 573.929688 L 220.644531 589.292969 " fill-opacity="1" fill-rule="nonzero"/><path fill="#f9bb4b" d="M 251.386719 589.292969 L 236.015625 589.292969 L 236.015625 573.929688 L 251.386719 573.929688 L 251.386719 589.292969 " fill-opacity="1" fill-rule="nonzero"/><path fill="#f9bb4b" d="M 282.128906 589.292969 L 266.757812 589.292969 L 266.757812 573.929688 L 282.128906 573.929688 L 282.128906 589.292969 " fill-opacity="1" fill-rule="nonzero"/><path fill="#f9bb4b" d="M 312.871094 589.292969 L 297.5 589.292969 L 297.5 573.929688 L 312.871094 573.929688 L 312.871094 589.292969 " fill-opacity="1" fill-rule="nonzero"/><g clip-path="url(#12989df0ad)"><path fill="#d3843d" d="M 627.976562 612.332031 L 474.265625 612.332031 L 474.265625 550.886719 L 627.976562 550.886719 L 627.976562 612.332031 " fill-opacity="1" fill-rule="nonzero"/></g><path fill="#f9bb4b" d="M 512.691406 589.292969 L 497.320312 589.292969 L 497.320312 573.929688 L 512.691406 573.929688 L 512.691406 589.292969 " fill-opacity="1" fill-rule="nonzero"/><path fill="#f9bb4b" d="M 543.433594 589.292969 L 528.0625 589.292969 L 528.0625 573.929688 L 543.433594 573.929688 L 543.433594 589.292969 " fill-opacity="1" fill-rule="nonzero"/><path fill="#f9bb4b" d="M 574.175781 589.292969 L 558.804688 589.292969 L 558.804688 573.929688 L 574.175781 573.929688 L 574.175781 589.292969 " fill-opacity="1" fill-rule="nonzero"/><path fill="#f9bb4b" d="M 604.917969 589.292969 L 589.546875 589.292969 L 589.546875 573.929688 L 604.917969 573.929688 L 604.917969 589.292969 " fill-opacity="1" fill-rule="nonzero"/><path fill="#2d75bb" d="M 474.265625 550.886719 L 335.925781 550.886719 L 335.925781 458.722656 L 474.265625 458.722656 L 474.265625 550.886719 " fill-opacity="1" fill-rule="nonzero"/><path fill="#f4f4e6" d="M 412.78125 550.886719 L 397.410156 550.886719 L 397.410156 458.722656 L 412.78125 458.722656 L 412.78125 550.886719 " fill-opacity="1" fill-rule="nonzero"/><path fill="#f4f4e6" d="M 382.039062 497.125 L 366.667969 497.125 L 366.667969 481.761719 L 382.039062 481.761719 L 382.039062 497.125 " fill-opacity="1" fill-rule="nonzero"/><path fill="#f4f4e6" d="M 443.523438 497.125 L 428.152344 497.125 L 428.152344 481.761719 L 443.523438 481.761719 L 443.523438 497.125 " fill-opacity="1" fill-rule="nonzero"/><path fill="#50b4f8" d="M 474.265625 458.722656 L 335.925781 458.722656 L 335.925781 428 L 474.265625 428 L 474.265625 458.722656 " fill-opacity="1" fill-rule="nonzero"/><g clip-path="url(#26154deafe)"><path fill="#b11e48" d="M 335.925781 235.984375 L 205.273438 312.792969 L 182.214844 312.792969 L 182.214844 282.070312 L 197.585938 282.070312 L 335.925781 197.582031 L 335.925781 235.984375 " fill-opacity="1" fill-rule="nonzero"/></g><path fill="#cfdfe8" d="M 335.925781 259.027344 L 335.925781 235.984375 L 205.273438 312.792969 L 205.273438 550.886719 L 335.925781 550.886719 L 335.925781 428 L 474.265625 428 L 474.265625 550.886719 L 604.917969 550.886719 L 604.917969 374.234375 L 335.925781 259.027344 " fill-opacity="1" fill-rule="nonzero"/><path fill="#b11e48" d="M 335.925781 259.027344 L 604.917969 374.234375 L 627.976562 374.234375 L 627.976562 343.511719 L 612.605469 343.511719 L 335.925781 228.304688 L 335.925781 259.027344 " fill-opacity="1" fill-rule="nonzero"/><path fill="#dd3e46" d="M 312.871094 343.511719 L 289.8125 343.511719 L 289.8125 320.472656 L 259.070312 320.472656 L 259.070312 343.511719 L 236.015625 343.511719 L 236.015625 374.234375 L 259.070312 374.234375 L 259.070312 397.277344 L 289.8125 397.277344 L 289.8125 374.234375 L 312.871094 374.234375 L 312.871094 343.511719 " fill-opacity="1" fill-rule="nonzero"/><path fill="#50b4f8" d="M 305.183594 489.445312 L 236.015625 489.445312 L 236.015625 443.359375 L 305.183594 443.359375 L 305.183594 489.445312 " fill-opacity="1" fill-rule="nonzero"/><path fill="#50b4f8" d="M 574.175781 489.445312 L 505.007812 489.445312 L 505.007812 443.359375 L 574.175781 443.359375 L 574.175781 489.445312 " fill-opacity="1" fill-rule="nonzero"/><path fill="#2d75bb" d="M 305.183594 520.167969 L 236.015625 520.167969 L 236.015625 489.445312 L 305.183594 489.445312 L 305.183594 520.167969 " fill-opacity="1" fill-rule="nonzero"/><path fill="#2d75bb" d="M 574.175781 520.167969 L 505.007812 520.167969 L 505.007812 489.445312 L 574.175781 489.445312 L 574.175781 520.167969 " fill-opacity="1" fill-rule="nonzero"/><path fill="#ffffff" d="M 453.582031 370.394531 C 456.824219 367.574219 458.894531 363.496094 458.894531 358.875 C 458.894531 350.382812 452.019531 343.511719 443.523438 343.511719 C 435.027344 343.511719 428.152344 350.382812 428.152344 358.875 L 382.039062 358.875 C 382.039062 350.382812 375.164062 343.511719 366.667969 343.511719 C 358.171875 343.511719 351.296875 350.382812 351.296875 358.875 C 351.296875 363.496094 353.367188 367.574219 356.609375 370.394531 C 353.367188 373.214844 351.296875 377.296875 351.296875 381.917969 C 351.296875 390.40625 358.171875 397.277344 366.667969 397.277344 C 372.34375 397.277344 377.234375 394.15625 379.90625 389.597656 L 430.285156 389.597656 C 432.957031 394.15625 437.847656 397.277344 443.523438 397.277344 C 452.019531 397.277344 458.894531 390.40625 458.894531 381.917969 C 458.894531 377.296875 456.824219 373.214844 453.582031 370.394531 " fill-opacity="1" fill-rule="nonzero"/></svg>

<svg xmlns="http://www.w3.org/2000/svg" width="1080" id="medical" height="1080" version="1.0" viewBox="0 0 810 810"><defs><clipPath id="a"><path d="M335 581h140v31.332H335Zm0 0"/></clipPath><clipPath id="b"><path d="M182 550h154v62.332H182Zm0 0"/></clipPath><clipPath id="c"><path d="M474 550h154v62.332H474Zm0 0"/></clipPath><clipPath id="d"><path d="M182 197.582h154V313H182Zm0 0"/></clipPath></defs><path fill="#512623" d="M474.266 581.61h-138.34v-30.723h138.34v30.722"/><g clip-path="url(#a)"><path fill="#66342e" d="M474.266 612.332h-138.34v-30.723h138.34v30.723"/></g><g clip-path="url(#b)"><path fill="#d3843d" d="M335.926 612.332H182.215v-61.445h153.71v61.445"/></g><path fill="#f9bb4b" d="M220.645 589.29h-15.372v-15.36h15.372v15.36M251.387 589.29h-15.371v-15.36h15.37v15.36M282.129 589.29h-15.371v-15.36h15.37v15.36M312.871 589.29H297.5v-15.36h15.371v15.36"/><g clip-path="url(#c)"><path fill="#d3843d" d="M627.977 612.332H474.266v-61.445h153.71v61.445"/></g><path fill="#f9bb4b" d="M512.691 589.29h-15.37v-15.36h15.37v15.36M543.434 589.29h-15.371v-15.36h15.37v15.36M574.176 589.29h-15.371v-15.36h15.37v15.36M604.918 589.29h-15.371v-15.36h15.371v15.36"/><path fill="#2d75bb" d="M474.266 550.887h-138.34v-92.164h138.34v92.164"/><path fill="#f4f4e6" d="M412.781 550.887h-15.37v-92.164h15.37v92.164M382.04 497.125h-15.372v-15.363h15.371v15.363M443.523 497.125h-15.37v-15.363h15.37v15.363"/><path fill="#50b4f8" d="M474.266 458.723h-138.34V428h138.34v30.723"/><g clip-path="url(#d)"><path fill="#b11e48" d="M335.926 235.984 205.273 312.79h-23.058V282.07h15.37l138.34-84.488v38.402"/></g><path fill="#cfdfe8" d="M335.926 259.027v-23.043L205.273 312.79v238.098h130.653V428h138.34v122.887h130.652V374.234L335.926 259.027"/><path fill="#b11e48" d="m335.926 259.027 268.992 115.207h23.059v-30.722h-15.372l-276.68-115.207v30.722"/><path fill="#dd3e46" d="M312.871 343.512h-23.058v-23.04H259.07v23.04h-23.054v30.722h23.054v23.043h30.743v-23.043h23.058v-30.722"/><path fill="#50b4f8" d="M305.184 489.445h-69.168V443.36h69.168v46.086M574.176 489.445h-69.168V443.36h69.168v46.086"/><path fill="#2d75bb" d="M305.184 520.164h-69.168v-30.719h69.168v30.72M574.176 520.164h-69.168v-30.719h69.168v30.72"/><path fill="#fff" d="M453.582 370.395c3.242-2.82 5.313-6.899 5.313-11.52 0-8.492-6.875-15.363-15.372-15.363-8.496 0-15.37 6.87-15.37 15.363h-46.114c0-8.492-6.875-15.363-15.371-15.363s-15.371 6.87-15.371 15.363c0 4.621 2.07 8.7 5.312 11.52-3.242 2.82-5.312 6.902-5.312 11.52 0 8.491 6.875 15.362 15.371 15.362 5.676 0 10.566-3.12 13.238-7.68h50.38c2.671 4.56 7.562 7.68 13.237 7.68 8.497 0 15.372-6.87 15.372-15.363 0-4.617-2.07-8.7-5.313-11.52"/></svg>
